docs/images/fruits_2/apricot.svg

<svg id="Capa_1" enable-background="new 0 0 512 512" height="512" viewBox="0 0 512 512" width="512" xmlns="http://www.w3.org/2000/svg"><g><g><g><path d="m413.634 107.733c-15.674 12.167-35.359 16.422-53.782 13.292-.314-18.968 8.146-37.878 24.73-50.751 13.742-10.667 30.566-15.253 46.919-14.112 4.012.28 6.968 3.897 6.572 7.899-1.63 16.509-9.922 32.404-24.439 43.672z" fill="#9be69d"/><path d="m431.501 56.162c-8.585-.599-17.297.397-25.627 3.006.968 1.375 1.472 3.093 1.294 4.893-1.631 16.51-9.923 32.404-24.44 43.673-6.978 5.417-14.753 9.256-22.855 11.582-.006.57-.03 1.139-.021 1.709 18.422 3.131 38.107-1.124 53.782-13.292 14.517-11.269 22.809-27.163 24.44-43.673.395-4.002-2.561-7.618-6.573-7.898z" fill="#6fd7a3"/><g><path d="m359.858 128.752c-2.322 0-4.619-1.043-6.14-3.03-2.594-3.388-1.95-8.238 1.438-10.832l43.071-32.977c3.388-2.594 8.237-1.951 10.832 1.438 2.594 3.388 1.95 8.238-1.438 10.832l-43.071 32.977c-1.402 1.073-3.054 1.592-4.692 1.592z" fill="#bbf49b"/></g></g><g><path d="m351.977 181.503c-.916 0-1.848-.164-2.755-.51-3.986-1.522-5.984-5.988-4.462-9.974 6.118-16.023 8.591-33.377 7.152-50.186-2.629-30.701-17.529-52.827-26.177-63.284-2.719-3.288-2.258-8.159 1.03-10.878 3.289-2.718 8.159-2.257 10.878 1.03 9.796 11.846 26.677 36.928 29.664 71.813 1.636 19.115-1.168 38.83-8.112 57.016-1.174 3.08-4.106 4.973-7.218 4.973z" fill="#6fd7a3"/></g><g><path d="m392.856 150.467c-13.463 0-26.404 2.971-38.474 8.44-12.07-5.469-25.01-8.44-38.474-8.44-65.801 0-119.144 70.881-119.144 158.317s53.343 158.317 119.144 158.317c13.463 0 26.404-2.971 38.474-8.44 12.07 5.469 25.01 8.44 38.474 8.44 65.801 0 119.144-70.881 119.144-158.317s-53.343-158.317-119.144-158.317z" fill="#fe9738"/><g><path d="m392.856 150.467c-5.234 0-10.389.455-15.445 1.325 58.497 10.073 103.683 76.518 103.683 156.992s-45.186 146.919-103.683 156.992c5.056.87 10.21 1.325 15.445 1.325 65.801 0 119.144-70.881 119.144-158.317s-53.343-158.317-119.144-158.317z" fill="#fe860a"/></g><g fill="#fe860a"><path d="m369.44 153.535c-5.146 1.364-10.174 3.16-15.058 5.373-2.419-1.096-4.874-2.087-7.36-2.978-11.082 14.439-23.459 34.704-29.048 52.027-1.31 4.061.92 8.415 4.981 9.725.788.255 1.588.375 2.374.375 3.263 0 6.296-2.083 7.352-5.356 6.682-20.709 25.875-48.591 36.759-59.166z"/><path d="m372.751 464.85c-11.416-9.25-33.541-34.033-40.276-50.419-1.622-3.946-6.137-5.83-10.084-4.209-3.947 1.623-5.831 6.137-4.209 10.084 5.35 13.015 17.526 28.906 28.986 41.282 2.436-.878 4.843-1.853 7.215-2.928 5.926 2.686 12.063 4.766 18.368 6.19z"/></g></g></g><g><g><path d="m196.091 150.467c-12.455 0-24.463 2.543-35.748 7.254-1.743.727-3.709.727-5.452 0-11.285-4.711-23.293-7.254-35.748-7.254-65.8 0-119.143 70.881-119.143 158.317s53.343 158.317 119.144 158.317c12.455 0 24.463-2.543 35.748-7.254 1.743-.727 3.709-.727 5.452 0 11.285 4.711 23.293 7.254 35.748 7.254 65.801 0 119.144-70.881 119.144-158.317-.001-87.436-53.343-158.317-119.145-158.317z" fill="#fee97d"/></g><g><path d="m196.091 150.467c-5.234 0-10.389.455-15.445 1.325 58.497 10.073 103.683 76.518 103.683 156.992s-45.186 146.919-103.683 156.992c5.056.87 10.21 1.325 15.445 1.325 65.801 0 119.144-70.881 119.144-158.317s-53.342-158.317-119.144-158.317z" fill="#f4da6e"/></g><ellipse cx="157.618" cy="308.784" fill="#d77f4a" rx="54.6" ry="83.114"/><path d="m157.618 225.671c-5.369 0-10.552 1.2-15.453 3.398 22.626 10.148 39.147 41.986 39.147 79.716 0 37.729-16.521 69.567-39.147 79.716 4.901 2.198 10.084 3.398 15.453 3.398 30.155 0 54.6-37.211 54.6-83.114s-24.446-83.114-54.6-83.114z" fill="#c86d36"/></g></g></svg>

<svg width="512" height="512" viewBox="0 0 512 512" fill="none" xmlns="http://www.w3.org/2000/svg">
<path d="M413.634 107.733C397.96 119.9 378.275 124.155 359.852 121.025C359.538 102.057 367.998 83.1473 384.582 70.2743C398.324 59.6073 415.148 55.0213 431.501 56.1623C435.513 56.4423 438.469 60.0593 438.073 64.0613C436.443 80.5703 428.151 96.4653 413.634 107.733Z" fill="#B9E871"/>
<path d="M431.502 56.1627C422.917 55.5637 414.205 56.5597 405.875 59.1687C406.843 60.5437 407.347 62.2617 407.169 64.0617C405.538 80.5717 397.246 96.4657 382.729 107.735C375.751 113.152 367.976 116.991 359.874 119.317C359.868 119.887 359.844 120.456 359.853 121.026C378.275 124.157 397.96 119.902 413.635 107.734C428.152 96.4647 436.444 80.5707 438.075 64.0607C438.47 60.0587 435.514 56.4427 431.502 56.1627Z" fill="#56B76F"/>
<path d="M359.858 128.752C357.536 128.752 355.239 127.709 353.718 125.722C351.124 122.334 351.768 117.484 355.156 114.89L398.227 81.9135C401.615 79.3195 406.464 79.9624 409.059 83.3514C411.653 86.7394 411.009 91.5894 407.621 94.1834L364.55 127.16C363.148 128.233 361.496 128.752 359.858 128.752Z" fill="#92D955"/>
<path d="M351.977 181.503C351.061 181.503 350.129 181.339 349.222 180.993C345.236 179.471 343.238 175.005 344.76 171.019C350.878 154.996 353.351 137.642 351.912 120.833C349.283 90.1319 334.383 68.0059 325.735 57.5489C323.016 54.2609 323.477 49.3899 326.765 46.6709C330.054 43.9529 334.924 44.4139 337.643 47.7009C347.439 59.5469 364.32 84.6289 367.307 119.514C368.943 138.629 366.139 158.344 359.195 176.53C358.021 179.61 355.089 181.503 351.977 181.503Z" fill="#56B76F"/>
<path d="M392.856 150.467C379.393 150.467 366.452 153.438 354.382 158.907C342.312 153.438 329.372 150.467 315.908 150.467C250.107 150.467 196.764 221.348 196.764 308.784C196.764 396.22 250.107 467.101 315.908 467.101C329.371 467.101 342.312 464.13 354.382 458.661C366.452 464.13 379.392 467.101 392.856 467.101C458.657 467.101 512 396.22 512 308.784C512 221.348 458.657 150.467 392.856 150.467Z" fill="#FF9F31"/>
<path d="M392.856 150.467C387.622 150.467 382.467 150.922 377.411 151.792C435.908 161.865 481.094 228.31 481.094 308.784C481.094 389.258 435.908 455.703 377.411 465.776C382.467 466.646 387.621 467.101 392.856 467.101C458.657 467.101 512 396.22 512 308.784C512 221.348 458.657 150.467 392.856 150.467Z" fill="#F2851B"/>
<path d="M369.44 153.535C364.294 154.899 359.266 156.695 354.382 158.908C351.963 157.812 349.508 156.821 347.022 155.93C335.94 170.369 323.563 190.634 317.974 207.957C316.664 212.018 318.894 216.372 322.955 217.682C323.743 217.937 324.543 218.057 325.329 218.057C328.592 218.057 331.625 215.974 332.681 212.701C339.363 191.992 358.556 164.11 369.44 153.535Z" fill="#F2851B"/>
<path d="M372.751 464.85C361.335 455.6 339.21 430.817 332.475 414.431C330.853 410.485 326.338 408.601 322.391 410.222C318.444 411.845 316.56 416.359 318.182 420.306C323.532 433.321 335.708 449.212 347.168 461.588C349.604 460.71 352.011 459.735 354.383 458.66C360.309 461.346 366.446 463.426 372.751 464.85Z" fill="#F2851B"/>
<path d="M196.091 150.467C183.636 150.467 171.628 153.01 160.343 157.721C158.6 158.448 156.634 158.448 154.891 157.721C143.606 153.01 131.598 150.467 119.143 150.467C53.343 150.467 0 221.348 0 308.784C0 396.22 53.343 467.101 119.144 467.101C131.599 467.101 143.607 464.558 154.892 459.847C156.635 459.12 158.601 459.12 160.344 459.847C171.629 464.558 183.637 467.101 196.092 467.101C261.893 467.101 315.236 396.22 315.236 308.784C315.235 221.348 261.893 150.467 196.091 150.467Z" fill="#FEE97D"/>
<path d="M196.091 150.467C190.857 150.467 185.702 150.922 180.646 151.792C239.143 161.865 284.329 228.31 284.329 308.784C284.329 389.258 239.143 455.703 180.646 465.776C185.702 466.646 190.856 467.101 196.091 467.101C261.892 467.101 315.235 396.22 315.235 308.784C315.235 221.348 261.893 150.467 196.091 150.467Z" fill="#FAD644"/>
<path d="M157.618 391.898C187.773 391.898 212.218 354.687 212.218 308.784C212.218 262.881 187.773 225.67 157.618 225.67C127.463 225.67 103.018 262.881 103.018 308.784C103.018 354.687 127.463 391.898 157.618 391.898Z" fill="#C97C49"/>
<path d="M157.618 225.671C152.249 225.671 147.066 226.871 142.165 229.069C164.791 239.217 181.312 271.055 181.312 308.785C181.312 346.514 164.791 378.352 142.165 388.501C147.066 390.699 152.249 391.899 157.618 391.899C187.773 391.899 212.218 354.688 212.218 308.785C212.218 262.882 187.772 225.671 157.618 225.671Z" fill="#994E37"/>
</svg>
